data/styles/clear/style-night/symbols/pharmacy-m.svg

<svg height="24" viewBox="0 0 24 24" width="24"><g fill="none" fill-rule="evenodd"><circle cx="12" cy="12" fill="#fff" opacity=".4" r="12"/><circle cx="12" cy="12" fill="#8f4033" r="11"/><path d="m14.5378158 6c-.9071225 0-1.8104654.35203629-2.4756885 1.01116805l-5.0080722 4.98093895c-1.03249149 1.0230372-1.31299186 2.5083032-.81263058 3.7450668 0 0 .37418803.8763457.73703704 1.2358721.34157359.3384456.7539825.5767942 1.1716999.7490134.1153344.0594974.20244168.0811858.30237417.112352.01341622.0041387.02434438.0147496.03779677.0187253 1.20230646.3553134 2.5437227.0674112 3.4584046-.8800907l3.0237416-2.9960535 1.9843305-1.9848854c1.3909212-1.3781846 1.3909212-3.58777407 0-4.90603761-.6047483-.71905284-1.5118708-1.08606939-2.4189933-1.08606939zm0 1.1984214c.6047483 0 1.2208357.23593921 1.6441595.6553867s.6614435 1.02989339.6614435 1.62910408c0 .59921072-.2381197 1.19093122-.6614435 1.61037872l-2.059924 2.0410615-3.2659112-3.25739928 1.9997194-1.96696902c.4837986-.47936856 1.0167331-.7115627 1.6819563-.7115627z" fill="#fff" fill-rule="nonzero" opacity=".6"/></g></svg>

<svg width="24" height="24" viewBox="0 0 24 24">
  <g fill="none" fill-rule="evenodd">
    <circle cx="12" cy="12" r="12" fill="#FFF" opacity=".4"/>
    <circle cx="12" cy="12" r="11" fill="#8F3F33"/>
    <path fill="#FFF" fill-rule="nonzero" d="M14.5378158,6 C13.6306933,6 12.7273504,6.35203629 12.0621273,7.01116805 L7.0540551,11.992107 C6.02156361,13.0151442 5.74106324,14.5004102 6.24142452,15.7371738 C6.24142452,15.7371738 6.61561255,16.6135195 6.97846156,16.9730459 C7.32003515,17.3114915 7.73244406,17.5498401 8.15016146,17.7220593 C8.26549586,17.7815567 8.35260314,17.8032451 8.45253563,17.8344113 C8.46595185,17.83855 8.47688001,17.8491609 8.4903324,17.8531366 C9.69263886,18.20845 11.0340551,17.9205478 11.948737,16.9730459 L14.9724786,13.9769924 L16.9568091,11.992107 C18.3477303,10.6139224 18.3477303,8.40433293 16.9568091,7.08606939 C16.3520608,6.36701655 15.4449383,6 14.5378158,6 Z M14.5378158,7.1984214 C15.1425641,7.1984214 15.7586515,7.43436061 16.1819753,7.8538081 C16.6052991,8.27325559 16.8434188,8.88370149 16.8434188,9.48291218 C16.8434188,10.0821229 16.6052991,10.6738434 16.1819753,11.0932909 L14.1220513,13.1343524 L10.8561401,9.87695312 L12.8558595,7.9099841 C13.3396581,7.43061554 13.8725926,7.1984214 14.5378158,7.1984214 Z" opacity=".6"/>
  </g>
</svg>
